X: 004
T: Brave Young Brian (jig)
N: 020209
H: Originally named "Brian the Brave"
C: BB
R: jig
Q: 340
M: 6/8
L: 1/8
K: G
D | "G"GFG BAG | "C"efg "D"dBA | "G"GFG BAG | "Em"EAB "D"A2 D |
"G"GFG BAG | "C"efg "D"def | "G"gdB "Am"cAF | "D"DEF "G"G2 :|
e | "G"gfg "Am"aga | "G"bag "C"efg | "G"dBd gdB | "Em"GAB "D"A2 e |
"G"gfg "Am"aga | "G"bag "Em"edB | "G"GAB "Am"AGE |"D"DEF "G"G2 :|
%%%%%%%%%%%%%%%%%%%%%%%%%%%%%%%%%%%%%%%%%%%
